T: Andrew's March
M: 4/4
L: 1/8
K: Dmaj
|: FG|A>FAf d2AF|BGBg e2ed|c>dcB {c}BAcB|A>BAG F2FG|
A>FAf d2AF|BGBg e2ed|c>dcB {c}BAcB|AecA d2:|
|:fg|a>bag fAdf|g>age B2ef|g>age cAce|d>efd A2fg|
a>bag fAdf|g>age B2ef|gf{g}fe edcB|AecA d2:|
